X:1
T:Title
%%score { ( 1 3 ) | ( 2 4 ) }
L:1/8
M:4/4
K:Db
V:1 treble nm="Grand Piano"
V:3 treble 
V:2 bass 
V:4 bass 
V:1
 z4 z2[Q:1/4=100] D2 | F2 FF [A,CF]2[K:bass] [E,A,C][A,CE] | %2
 [G,CE] [F,D]3- [F,D]2[K:treble] [A,DF]2 | [A,CA]2 [EA][DA] [CE]2 FG |[M:3/4] F6 |[M:1/4] [FA]2 | %6
[M:4/4] [Fd]2 [Gd][Ad] F2 GA | c B3- B2 d2 | c2 BA [CG]2 [CF][CE] |[M:3/4] D6 |[M:1/4] A2 | %11
[M:4/4] z A3- A2 z2 | z B3- B2 z2 | c2 BA [CE]2 FG |[M:3/4] F6 |[M:1/4] [FA]2 | %16
[M:4/4] [Fd]2 [Gd][Bd] F2 GA | c B3- B2 d2 | c2 BA [CG]2 [CF][CE] |[M:3/4] D6 |] %20
V:2
 z4 z2 [D,F,]2 | [D,A,D]2 [D,A,D][D,A,D] A,,2 A,,A,, | A,, D,3- D,2 D,2 | %3
 A,,2 [A,,G,][A,,F,] [A,,A,]2 [D,A,D][D,B,D] |[M:3/4] [D,A,D]6 |[M:1/4] [D,D]2 | %6
[M:4/4] [D,A,]2 [E,A,][F,A,] [D,A,D]2 [E,A,C][F,A,D] | [G,G] [G,DG]3- [G,DG]2 [G,B,G]2 | %8
 [A,E]2 [A,D][A,C] [A,,A,]2 [A,,A,][A,,G,] |[M:3/4] [D,F,]6 |[M:1/4] z2 |[M:4/4] z F3- F2 z2 | %12
 z G3- G2 z2 | [A,E]2 [A,D][A,C] [A,,A,]2 [D,A,D][D,B,D] |[M:3/4] [D,A,D]6 |[M:1/4] [D,D]2 | %16
[M:4/4] [D,A,]2 [E,A,][F,A,] [D,A,D]2 [E,A,C][F,A,D] | [G,G] [G,DG]3- [G,DG]2 [G,B,G]2 | %18
 [A,E]2 [A,D][A,C] [A,,A,]2 [A,,A,][A,,G,] |[M:3/4] [D,F,]6 |] %20
V:3
 x8 | x6[K:bass] x2 | x6[K:treble] x2 | x8 |[M:3/4] x6 |[M:1/4] x2 |[M:4/4] x8 | x8 | x8 | %9
[M:3/4] x6 |[M:1/4] x2 |[M:4/4] .D2 D2 DD F2 | .D2 D2 DD d2 | x8 |[M:3/4] x6 |[M:1/4] x2 | %16
[M:4/4] x8 | x8 | x8 |[M:3/4] x6 |] %20
V:4
 x8 | x8 | x8 | x8 |[M:3/4] x6 |[M:1/4] x2 |[M:4/4] x8 | x8 | x8 |[M:3/4] x6 |[M:1/4] x2 | %11
[M:4/4] z2 D,2 D,D, z2 | z2 G,2 G,G, [G,B,G]2 | x8 |[M:3/4] x6 |[M:1/4] x2 |[M:4/4] x8 | x8 | x8 | %19
[M:3/4] x6 |] %20

